src/Icons/TabBar/Magnify.svg

<svg width="40" height="32" viewBox="0 0 40 32" fill="none" xmlns="http://www.w3.org/2000/svg">
<path d="M7.36816 14.5742C7.36816 13.1354 7.639 11.7812 8.18066 10.5117C8.72233 9.24219 9.47559 8.12923 10.4404 7.17285C11.4053 6.20801 12.5182 5.45475 13.7793 4.91309C15.0488 4.37142 16.4072 4.10059 17.8545 4.10059C19.3018 4.10059 20.6559 4.37142 21.917 4.91309C23.1865 5.45475 24.3037 6.20801 25.2686 7.17285C26.2334 8.12923 26.9867 9.24219 27.5283 10.5117C28.07 11.7812 28.3408 13.1354 28.3408 14.5742C28.3408 15.6576 28.18 16.6901 27.8584 17.6719C27.5452 18.6536 27.1051 19.555 26.5381 20.376L32.0098 25.873C32.2129 26.0846 32.3652 26.3174 32.4668 26.5713C32.5768 26.8337 32.6318 27.113 32.6318 27.4092C32.6318 27.8154 32.5387 28.1836 32.3525 28.5137C32.1663 28.8438 31.9124 29.1019 31.5908 29.2881C31.2692 29.4827 30.8968 29.5801 30.4736 29.5801C30.1859 29.5801 29.9066 29.5293 29.6357 29.4277C29.3649 29.3262 29.1237 29.1696 28.9121 28.958L23.3896 23.4355C22.5941 23.9434 21.7266 24.3454 20.7871 24.6416C19.8561 24.9294 18.8786 25.0732 17.8545 25.0732C16.4072 25.0732 15.0488 24.8024 13.7793 24.2607C12.5182 23.7191 11.4053 22.9658 10.4404 22.001C9.47559 21.0361 8.72233 19.9189 8.18066 18.6494C7.639 17.3799 7.36816 16.0215 7.36816 14.5742ZM10.4531 14.5742C10.4531 15.5983 10.6436 16.5589 11.0244 17.4561C11.4137 18.3447 11.9469 19.1276 12.624 19.8047C13.3011 20.4818 14.084 21.015 14.9727 21.4043C15.8698 21.7852 16.8304 21.9756 17.8545 21.9756C18.8786 21.9756 19.835 21.7852 20.7236 21.4043C21.6208 21.015 22.4079 20.4818 23.085 19.8047C23.762 19.1276 24.291 18.3447 24.6719 17.4561C25.0612 16.5589 25.2559 15.5983 25.2559 14.5742C25.2559 13.5586 25.0612 12.6064 24.6719 11.7178C24.291 10.8206 23.762 10.0335 23.085 9.35645C22.4079 8.6709 21.6208 8.1377 20.7236 7.75684C19.835 7.37598 18.8786 7.18555 17.8545 7.18555C16.8304 7.18555 15.8698 7.37598 14.9727 7.75684C14.084 8.1377 13.3011 8.6709 12.624 9.35645C11.9469 10.0335 11.4137 10.8206 11.0244 11.7178C10.6436 12.6064 10.4531 13.5586 10.4531 14.5742Z" fill="black"/>
</svg>

<svg width="40" height="32" viewBox="0 0 40 32" fill="none" xmlns="http://www.w3.org/2000/svg"><path d="M7.368 14.574c0-1.439.271-2.793.813-4.062a10.4 10.4 0 0 1 2.26-3.34 10.588 10.588 0 0 1 3.338-2.259 10.274 10.274 0 0 1 4.076-.812c1.447 0 2.8.27 4.062.812a10.549 10.549 0 0 1 3.352 2.26 10.4 10.4 0 0 1 2.26 3.339c.541 1.27.812 2.623.812 4.062 0 1.084-.161 2.116-.483 3.098a10.165 10.165 0 0 1-1.32 2.704l5.472 5.497c.203.212.355.444.457.698.11.263.165.542.165.838 0 .406-.093.775-.28 1.105a2.115 2.115 0 0 1-1.879 1.066c-.287 0-.566-.05-.837-.152a2.014 2.014 0 0 1-.724-.47l-5.522-5.522c-.796.507-1.663.91-2.603 1.206a9.873 9.873 0 0 1-2.932.431c-1.448 0-2.806-.27-4.076-.812A10.587 10.587 0 0 1 10.44 22a10.55 10.55 0 0 1-2.26-3.352 10.274 10.274 0 0 1-.812-4.075zm3.085 0c0 1.024.19 1.985.571 2.882a7.608 7.608 0 0 0 3.949 3.948c.897.381 1.857.572 2.882.572 1.024 0 1.98-.19 2.869-.572a7.564 7.564 0 0 0 2.361-1.6 7.43 7.43 0 0 0 1.587-2.348c.39-.897.584-1.858.584-2.882a7.04 7.04 0 0 0-.584-2.856 7.39 7.39 0 0 0-1.587-2.362 7.288 7.288 0 0 0-2.361-1.6 7.205 7.205 0 0 0-2.87-.57c-1.024 0-1.984.19-2.881.57a7.326 7.326 0 0 0-2.349 1.6 7.563 7.563 0 0 0-1.6 2.362 7.175 7.175 0 0 0-.57 2.856z" fill="#000"/></svg>
